elementary-xfce/mimetypes/24/application-certificate.svg

<?xml version="1.0" encoding="UTF-8" standalone="no"?>
<svg
   version="1.0"
   width="24"
   height="24"
   id="svg2453"
   xmlns:xlink="http://www.w3.org/1999/xlink"
   xmlns="http://www.w3.org/2000/svg"
   xmlns:svg="http://www.w3.org/2000/svg"
   xmlns:rdf="http://www.w3.org/1999/02/22-rdf-syntax-ns#"
   xmlns:cc="http://creativecommons.org/ns#"
   xmlns:dc="http://purl.org/dc/elements/1.1/">
  <metadata
     id="metadata35">
    <rdf:RDF>
      <cc:Work
         rdf:about="">
        <dc:format>image/svg+xml</dc:format>
        <dc:type
           rdf:resource="http://purl.org/dc/dcmitype/StillImage" />
      </cc:Work>
    </rdf:RDF>
  </metadata>
  <defs
     id="defs2455">
    <linearGradient
       id="linearGradient927">
      <stop
         style="stop-color:#0d52bf;stop-opacity:1"
         offset="0"
         id="stop923" />
      <stop
         style="stop-color:#3689e6;stop-opacity:1"
         offset="1"
         id="stop925" />
    </linearGradient>
    <linearGradient
       id="linearGradient913">
      <stop
         style="stop-color:#ffe16b;stop-opacity:1"
         offset="0"
         id="stop909" />
      <stop
         style="stop-color:#f9c440;stop-opacity:1"
         offset="1"
         id="stop911" />
    </linearGradient>
    <linearGradient
       id="linearGradient4324">
      <stop
         offset="0"
         style="stop-color:#ffffff;stop-opacity:1"
         id="stop4326" />
      <stop
         offset="0"
         style="stop-color:#ffffff;stop-opacity:0.23529412"
         id="stop4328" />
      <stop
         offset="1"
         style="stop-color:#ffffff;stop-opacity:0.15686275"
         id="stop4330" />
      <stop
         offset="1"
         style="stop-color:#ffffff;stop-opacity:0.39215687"
         id="stop4332" />
    </linearGradient>
    <radialGradient
       cx="605.71429"
       cy="486.64789"
       r="117.14286"
       fx="605.71429"
       fy="486.64789"
       id="radialGradient19613"
       xlink:href="#linearGradient5060"
       gradientUnits="userSpaceOnUse"
       gradientTransform="matrix(0.01445833,0,0,0.00617648,13.486574,18.735459)" />
    <linearGradient
       id="linearGradient5060">
      <stop
         id="stop5062"
         style="stop-color:#000000;stop-opacity:1"
         offset="0" />
      <stop
         id="stop5064"
         style="stop-color:#000000;stop-opacity:0"
         offset="1" />
    </linearGradient>
    <radialGradient
       cx="605.71429"
       cy="486.64789"
       r="117.14286"
       fx="605.71429"
       fy="486.64789"
       id="radialGradient19616"
       xlink:href="#linearGradient5060"
       gradientUnits="userSpaceOnUse"
       gradientTransform="matrix(-0.01445832,0,0,0.00617648,10.513465,18.735459)" />
    <linearGradient
       id="linearGradient5048">
      <stop
         id="stop5050"
         style="stop-color:#000000;stop-opacity:0"
         offset="0" />
      <stop
         id="stop5056"
         style="stop-color:#000000;stop-opacity:1"
         offset="0.5" />
      <stop
         id="stop5052"
         style="stop-color:#000000;stop-opacity:0"
         offset="1" />
    </linearGradient>
    <linearGradient
       x1="302.85715"
       y1="366.64789"
       x2="302.85715"
       y2="609.50507"
       id="linearGradient19619"
       xlink:href="#linearGradient5048"
       gradientUnits="userSpaceOnUse"
       gradientTransform="matrix(0.04224859,0,0,0.00617648,-3.2698284,18.735446)" />
    <linearGradient
       x1="23.99999"
       y1="6.6562409"
       x2="23.99999"
       y2="41.343742"
       id="linearGradient3138"
       xlink:href="#linearGradient4324"
       gradientUnits="userSpaceOnUse"
       gradientTransform="matrix(0.51351353,0,0,0.4324324,-0.32432124,2.1216678)" />
    <linearGradient
       id="linearGradient4487">
      <stop
         id="stop4489"
         style="stop-color:#d4d4d4;stop-opacity:1"
         offset="0" />
      <stop
         id="stop4491"
         style="stop-color:#fafafa;stop-opacity:1"
         offset="1" />
    </linearGradient>
    <linearGradient
       x1="164.28023"
       y1="241.65149"
       x2="164.28023"
       y2="156.78416"
       id="linearGradient3077-9-7"
       xlink:href="#linearGradient4487"
       gradientUnits="userSpaceOnUse"
       gradientTransform="matrix(0.21144626,0,0,0.17552362,-23.407981,-22.438915)" />
    <linearGradient
       xlink:href="#linearGradient913"
       id="linearGradient915"
       x1="15"
       y1="10.5"
       x2="15"
       y2="15.5"
       gradientUnits="userSpaceOnUse" />
    <linearGradient
       xlink:href="#linearGradient927"
       id="linearGradient929"
       x1="15"
       y1="13.5"
       x2="15"
       y2="17"
       gradientUnits="userSpaceOnUse" />
  </defs>
  <g
     id="g903">
    <path
       style="fill:#8a715e;stroke:none;stroke-width:1px;stroke-linecap:butt;stroke-linejoin:miter;stroke-opacity:1"
       d="M 1.5,3.5 4,6 v 13 l -2.5,2.5 z"
       id="path891" />
    <path
       style="fill:#8a715e;stroke:none;stroke-width:1px;stroke-linecap:butt;stroke-linejoin:miter;stroke-opacity:1"
       d="M 22.5,3.5 20,6 v 13 l 2.5,2.5 z"
       id="path893" />
    <path
       style="fill:#715344;stroke:none;stroke-width:1px;stroke-linecap:butt;stroke-linejoin:miter;stroke-opacity:1"
       d="M 1.5,3.5 4,6 h 16 l 2.5,-2.5 z"
       id="path895" />
    <path
       style="fill:#a3907c;stroke:none;stroke-width:1px;stroke-linecap:butt;stroke-linejoin:miter;stroke-opacity:1"
       d="M 1.5,21.5 4,19 h 16 l 2.5,2.5 z"
       id="path897" />
  </g>
  <rect
     style="display:inline;overflow:visible;visibility:visible;opacity:0.15;fill:url(#linearGradient19619);fill-opacity:1;fill-rule:nonzero;stroke:none;stroke-width:1;marker:none"
     id="rect2879"
     y="21.00004"
     x="1.8000031"
     height="1.5000025"
     width="20.400034" />
  <path
     style="display:inline;overflow:visible;visibility:visible;opacity:0.15;fill:url(#radialGradient19616);fill-opacity:1;fill-rule:nonzero;stroke:none;stroke-width:1;marker:none"
     id="path2881"
     d="m 1.8000031,21.000104 c 0,0 0,1.49992 0,1.49992 C 1.0554349,22.502848 0,22.163968 0,21.749968 c 0,-0.414 0.83088183,-0.749863 1.8000031,-0.749864 z" />
  <path
     style="display:inline;overflow:visible;visibility:visible;opacity:0.15;fill:url(#radialGradient19613);fill-opacity:1;fill-rule:nonzero;stroke:none;stroke-width:1;marker:none"
     id="path2883"
     d="m 22.200038,21.000104 c 0,0 0,1.49992 0,1.49992 0.744568,0.0028 1.800003,-0.336056 1.800003,-0.750056 0,-0.414 -0.830882,-0.749863 -1.800003,-0.749864 z" />
  <path
     d="m 21.5,20.500042 h -19 v -16 h 19 z"
     id="rect6741-1"
     style="opacity:0.3;fill:none;stroke:url(#linearGradient3138);stroke-width:1;stroke-linecap:round;stroke-linejoin:miter;stroke-miterlimit:4;stroke-dasharray:none;stroke-dashoffset:0;stroke-opacity:1" />
  <rect
     width="16"
     height="13"
     x="4"
     y="6"
     id="rect3180-1"
     style="color:#000000;display:inline;overflow:visible;visibility:visible;fill:url(#linearGradient3077-9-7);fill-opacity:1;fill-rule:nonzero;stroke:none;stroke-width:1;stroke-linecap:round;stroke-linejoin:miter;stroke-miterlimit:4;stroke-dasharray:none;stroke-dashoffset:0;stroke-opacity:1;marker:none;enable-background:accumulate" />
  <path
     style="opacity:1;fill:url(#linearGradient929);fill-opacity:1;stroke:none;stroke-width:1px;stroke-linecap:butt;stroke-linejoin:round;stroke-opacity:1"
     d="m 12.5,13.5 v 5 l 2.5,-1 2.5,1 v -5 z"
     id="path921" />
  <path
     style="opacity:0.5;fill:none;stroke:#002e99;stroke-width:1px;stroke-linecap:butt;stroke-linejoin:round;stroke-opacity:1"
     d="m 12.5,13.5 v 5 l 2.5,-1 2.5,1 v -5 z"
     id="path919" />
  <rect
     width="15"
     height="12"
     x="4.5"
     y="6.5"
     id="rect3180"
     style="color:#000000;display:inline;overflow:visible;visibility:visible;opacity:0.3;fill:none;fill-opacity:1;fill-rule:nonzero;stroke:#000000;stroke-width:1;stroke-linecap:round;stroke-linejoin:miter;stroke-miterlimit:4;stroke-dasharray:none;stroke-dashoffset:0;stroke-opacity:1;marker:none;enable-background:accumulate" />
  <path
     d="m 1.4999609,3.5000579 c 4.8121841,0 21.0000541,0.0011 21.0000541,0.0011 l 2.4e-5,17.9989231 c 0,0 -14.0000513,0 -21.0000781,0 0,-6.000023 0,-12.0000457 0,-18.0000681 z"
     id="path4160-9"
     style="display:inline;opacity:0.5;vector-effect:none;fill:none;fill-opacity:1;stroke:#3d211b;stroke-width:0.999922;stroke-linecap:butt;stroke-linejoin:round;stroke-miterlimit:4;stroke-dasharray:none;stroke-dashoffset:0;stroke-opacity:1" />
  <circle
     style="opacity:1;fill:url(#linearGradient915);fill-opacity:1;stroke:none;stroke-width:1;stroke-linejoin:round;stop-color:#000000"
     id="circle907"
     cx="15"
     cy="13"
     r="2.5" />
  <circle
     style="opacity:0.5;fill:none;stroke:#ad5f00;stroke-width:1;stroke-linejoin:round;stop-color:#000000"
     id="path905"
     cx="15"
     cy="13"
     r="2.5" />
  <circle
     style="opacity:0.3;fill:none;fill-opacity:1;stroke:#ffffff;stroke-width:1;stroke-linejoin:round;stop-color:#000000"
     id="path917"
     cx="15"
     cy="13"
     r="1.5" />
  <path
     id="rect931"
     style="opacity:1;fill:#555761;fill-opacity:1;stroke:none;stroke-width:1;stroke-linejoin:round;stop-color:#000000"
     d="m 7,8 v 1 h 3 V 8 Z m 4,0 v 1 h 2 V 8 Z m 3,0 v 1 h 3 V 8 Z" />
  <path
     id="rect937"
     style="opacity:1;fill:#7e8087;fill-opacity:1;stroke:none;stroke-width:1;stroke-linejoin:round;stop-color:#000000"
     d="m 6,10 v 1 h 2 v -1 z m 3,0 v 1 h 2 v -1 z m -3,2 v 1 h 3 v -1 z m 4,0 v 1 h 1 v -1 z m -4,2 v 1 h 2 v -1 z m 3,0 v 1 h 2 v -1 z" />
  <rect
     style="opacity:1;fill:#0d52bf;fill-opacity:1;stroke:none;stroke-width:1;stroke-linejoin:round;stop-color:#000000"
     id="rect949"
     width="4"
     height="1"
     x="6"
     y="16" />
</svg>

<?xml version="1.0" encoding="UTF-8" standalone="no"?>
<svg
   xmlns:dc="http://purl.org/dc/elements/1.1/"
   xmlns:cc="http://creativecommons.org/ns#"
   xmlns:rdf="http://www.w3.org/1999/02/22-rdf-syntax-ns#"
   xmlns:svg="http://www.w3.org/2000/svg"
   xmlns="http://www.w3.org/2000/svg"
   xmlns:xlink="http://www.w3.org/1999/xlink"
   version="1.0"
   width="24.000042"
   height="24.000042"
   id="svg2453">
  <metadata
     id="metadata35">
    <rdf:RDF>
      <cc:Work
         rdf:about="">
        <dc:format>image/svg+xml</dc:format>
        <dc:type
           rdf:resource="http://purl.org/dc/dcmitype/StillImage" />
        <dc:title />
      </cc:Work>
    </rdf:RDF>
  </metadata>
  <defs
     id="defs2455">
    <linearGradient
       id="linearGradient927">
      <stop
         style="stop-color:#0d52bf;stop-opacity:1"
         offset="0"
         id="stop923" />
      <stop
         style="stop-color:#3689e6;stop-opacity:1"
         offset="1"
         id="stop925" />
    </linearGradient>
    <linearGradient
       id="linearGradient913">
      <stop
         style="stop-color:#ffe16b;stop-opacity:1"
         offset="0"
         id="stop909" />
      <stop
         style="stop-color:#f9c440;stop-opacity:1"
         offset="1"
         id="stop911" />
    </linearGradient>
    <linearGradient
       id="linearGradient4324">
      <stop
         offset="0"
         style="stop-color:#ffffff;stop-opacity:1"
         id="stop4326" />
      <stop
         offset="0"
         style="stop-color:#ffffff;stop-opacity:0.23529412"
         id="stop4328" />
      <stop
         offset="1"
         style="stop-color:#ffffff;stop-opacity:0.15686275"
         id="stop4330" />
      <stop
         offset="1"
         style="stop-color:#ffffff;stop-opacity:0.39215687"
         id="stop4332" />
    </linearGradient>
    <radialGradient
       cx="605.71429"
       cy="486.64789"
       r="117.14286"
       fx="605.71429"
       fy="486.64789"
       id="radialGradient19613"
       xlink:href="#linearGradient5060"
       gradientUnits="userSpaceOnUse"
       gradientTransform="matrix(0.01445833,0,0,0.00617648,13.486574,18.735459)" />
    <linearGradient
       id="linearGradient5060">
      <stop
         id="stop5062"
         style="stop-color:#000000;stop-opacity:1"
         offset="0" />
      <stop
         id="stop5064"
         style="stop-color:#000000;stop-opacity:0"
         offset="1" />
    </linearGradient>
    <radialGradient
       cx="605.71429"
       cy="486.64789"
       r="117.14286"
       fx="605.71429"
       fy="486.64789"
       id="radialGradient19616"
       xlink:href="#linearGradient5060"
       gradientUnits="userSpaceOnUse"
       gradientTransform="matrix(-0.01445832,0,0,0.00617648,10.513465,18.735459)" />
    <linearGradient
       id="linearGradient5048">
      <stop
         id="stop5050"
         style="stop-color:#000000;stop-opacity:0"
         offset="0" />
      <stop
         id="stop5056"
         style="stop-color:#000000;stop-opacity:1"
         offset="0.5" />
      <stop
         id="stop5052"
         style="stop-color:#000000;stop-opacity:0"
         offset="1" />
    </linearGradient>
    <linearGradient
       x1="302.85715"
       y1="366.64789"
       x2="302.85715"
       y2="609.50507"
       id="linearGradient19619"
       xlink:href="#linearGradient5048"
       gradientUnits="userSpaceOnUse"
       gradientTransform="matrix(0.04224859,0,0,0.00617648,-3.2698284,18.735446)" />
    <linearGradient
       x1="23.99999"
       y1="6.6562409"
       x2="23.99999"
       y2="41.343742"
       id="linearGradient3138"
       xlink:href="#linearGradient4324"
       gradientUnits="userSpaceOnUse"
       gradientTransform="matrix(0.51351353,0,0,0.4324324,-0.32432124,2.1216678)" />
    <linearGradient
       id="linearGradient4487">
      <stop
         id="stop4489"
         style="stop-color:#d4d4d4;stop-opacity:1"
         offset="0" />
      <stop
         id="stop4491"
         style="stop-color:#fafafa;stop-opacity:1"
         offset="1" />
    </linearGradient>
    <linearGradient
       x1="164.28023"
       y1="241.65149"
       x2="164.28023"
       y2="156.78416"
       id="linearGradient3077-9-7"
       xlink:href="#linearGradient4487"
       gradientUnits="userSpaceOnUse"
       gradientTransform="matrix(0.21144626,0,0,0.17552362,-23.407981,-22.438915)" />
    <linearGradient
       xlink:href="#linearGradient913"
       id="linearGradient915"
       x1="15"
       y1="10.5"
       x2="15"
       y2="15.5"
       gradientUnits="userSpaceOnUse" />
    <linearGradient
       xlink:href="#linearGradient927"
       id="linearGradient929"
       x1="15"
       y1="13.5"
       x2="15"
       y2="17"
       gradientUnits="userSpaceOnUse" />
  </defs>
  <g
     id="g903">
    <path
       style="fill:#8a715e;stroke:none;stroke-width:1px;stroke-linecap:butt;stroke-linejoin:miter;stroke-opacity:1"
       d="M 1.5,3.5 4,6 v 13 l -2.5,2.5 z"
       id="path891" />
    <path
       style="fill:#8a715e;stroke:none;stroke-width:1px;stroke-linecap:butt;stroke-linejoin:miter;stroke-opacity:1"
       d="M 22.5,3.5 20,6 v 13 l 2.5,2.5 z"
       id="path893" />
    <path
       style="fill:#715344;stroke:none;stroke-width:1px;stroke-linecap:butt;stroke-linejoin:miter;stroke-opacity:1"
       d="M 1.5,3.5 4,6 h 16 l 2.5,-2.5 z"
       id="path895" />
    <path
       style="fill:#a3907c;stroke:none;stroke-width:1px;stroke-linecap:butt;stroke-linejoin:miter;stroke-opacity:1"
       d="M 1.5,21.5 4,19 h 16 l 2.5,2.5 z"
       id="path897" />
  </g>
  <rect
     style="display:inline;overflow:visible;visibility:visible;fill:url(#linearGradient19619);fill-opacity:1;fill-rule:nonzero;stroke:none;stroke-width:1;marker:none;opacity:0.15"
     id="rect2879"
     y="21.00004"
     x="1.8000031"
     height="1.5000025"
     width="20.400034" />
  <path
     style="display:inline;overflow:visible;visibility:visible;fill:url(#radialGradient19616);fill-opacity:1;fill-rule:nonzero;stroke:none;stroke-width:1;marker:none;opacity:0.15"
     id="path2881"
     d="m 1.8000031,21.000104 c 0,0 0,1.49992 0,1.49992 C 1.0554349,22.502848 0,22.163968 0,21.749968 c 0,-0.414 0.83088183,-0.749863 1.8000031,-0.749864 z" />
  <path
     style="display:inline;overflow:visible;visibility:visible;fill:url(#radialGradient19613);fill-opacity:1;fill-rule:nonzero;stroke:none;stroke-width:1;marker:none;opacity:0.15"
     id="path2883"
     d="m 22.200038,21.000104 c 0,0 0,1.49992 0,1.49992 0.744568,0.0028 1.800003,-0.336056 1.800003,-0.750056 0,-0.414 -0.830882,-0.749863 -1.800003,-0.749864 z" />
  <path
     d="m 21.5,20.500042 -19,0 0,-16 19,0 z"
     id="rect6741-1"
     style="fill:none;stroke:url(#linearGradient3138);stroke-width:1;stroke-linecap:round;stroke-linejoin:miter;stroke-miterlimit:4;stroke-opacity:1;stroke-dasharray:none;stroke-dashoffset:0;opacity:0.3" />
  <rect
     width="16"
     height="13"
     x="4"
     y="6"
     id="rect3180-1"
     style="color:#000000;display:inline;overflow:visible;visibility:visible;fill:url(#linearGradient3077-9-7);fill-opacity:1;fill-rule:nonzero;stroke:none;stroke-width:1;stroke-linecap:round;stroke-linejoin:miter;stroke-miterlimit:4;stroke-dasharray:none;stroke-dashoffset:0;stroke-opacity:1;marker:none;enable-background:accumulate" />
  <path
     style="opacity:1;fill:url(#linearGradient929);fill-opacity:1;stroke:none;stroke-width:1px;stroke-linecap:butt;stroke-linejoin:round;stroke-opacity:1"
     d="m 12.5,13.5 v 5 l 2.5,-1 2.5,1 v -5 z"
     id="path921" />
  <path
     style="opacity:0.5;fill:none;stroke:#002e99;stroke-width:1px;stroke-linecap:butt;stroke-linejoin:round;stroke-opacity:1"
     d="m 12.5,13.5 v 5 l 2.5,-1 2.5,1 v -5 z"
     id="path919" />
  <rect
     width="15"
     height="12"
     x="4.5"
     y="6.5"
     id="rect3180"
     style="color:#000000;display:inline;overflow:visible;visibility:visible;opacity:0.3;fill:none;fill-opacity:1;fill-rule:nonzero;stroke:#000000;stroke-width:1;stroke-linecap:round;stroke-linejoin:miter;stroke-miterlimit:4;stroke-dasharray:none;stroke-dashoffset:0;stroke-opacity:1;marker:none;enable-background:accumulate" />
  <path
     d="m 1.4999609,3.5000579 c 4.8121841,0 21.0000541,0.0011 21.0000541,0.0011 l 2.4e-5,17.9989231 c 0,0 -14.0000513,0 -21.0000781,0 0,-6.000023 0,-12.0000457 0,-18.0000681 z"
     id="path4160-9"
     style="display:inline;opacity:0.5;vector-effect:none;fill:none;fill-opacity:1;stroke:#3d211b;stroke-width:0.99992186;stroke-linecap:butt;stroke-linejoin:round;stroke-miterlimit:4;stroke-dasharray:none;stroke-dashoffset:0;stroke-opacity:1;font-variant-east_asian:normal" />
  <circle
     style="opacity:1;fill:url(#linearGradient915);stroke:none;stroke-width:1;stroke-linejoin:round;stop-color:#000000;fill-opacity:1"
     id="circle907"
     cx="15"
     cy="13"
     r="2.5" />
  <circle
     style="opacity:0.5;fill:none;stroke:#ad5f00;stroke-width:1;stroke-linejoin:round;stop-color:#000000"
     id="path905"
     cx="15"
     cy="13"
     r="2.5" />
  <circle
     style="opacity:0.3;fill:none;stroke:#ffffff;stroke-width:1;stroke-linejoin:round;stop-color:#000000;fill-opacity:1"
     id="path917"
     cx="15"
     cy="13"
     r="1.5" />
  <path
     id="rect931"
     style="opacity:1;fill:#555761;fill-opacity:1;stroke:none;stroke-width:1;stroke-linejoin:round;stop-color:#000000"
     d="M 7 8 L 7 9 L 10 9 L 10 8 L 7 8 z M 11 8 L 11 9 L 13 9 L 13 8 L 11 8 z M 14 8 L 14 9 L 17 9 L 17 8 L 14 8 z " />
  <path
     id="rect937"
     style="opacity:1;fill:#7e8087;fill-opacity:1;stroke:none;stroke-width:1;stroke-linejoin:round;stop-color:#000000"
     d="M 6 10 L 6 11 L 8 11 L 8 10 L 6 10 z M 9 10 L 9 11 L 11 11 L 11 10 L 9 10 z M 6 12 L 6 13 L 9 13 L 9 12 L 6 12 z M 10 12 L 10 13 L 11 13 L 11 12 L 10 12 z M 6 14 L 6 15 L 8 15 L 8 14 L 6 14 z M 9 14 L 9 15 L 11 15 L 11 14 L 9 14 z " />
  <rect
     style="opacity:1;fill:#0d52bf;fill-opacity:1;stroke:none;stroke-width:1;stroke-linejoin:round;stop-color:#000000"
     id="rect949"
     width="4"
     height="1"
     x="6"
     y="16" />
</svg>
